X: 140052
Q: "Irish Jig."
M: 6/8
L: 1/8
K: D
vF/E/ |\
uf |\
ecA ABA | ecA uA2uf | ecA Ace | fdB B2f ||
ecA fdB | ecA a^gf  | ecA BAF | AFE D2  ::\
ud |\
dFF FEF | AFF F2ud  | dFF FEF | AFE E2ud |\
dFF FEF | AFA d2ud  | cBA BAF | AFE E2  :|



